X:1
T:Fyrtur efter J A Guldstrand
C:J A Guldstrand
R:Fyrtur
Z:Patrik Mnsson, 2008-10-06
O:Luggude hrad, Skne
M:2/4
L:1/16
K:D
|: d>fa>g a>fd>f | e>cA>c d>AF>A | d>fa>f a>fd>f | e>cA>c d2 z2 :|
|: d2f2 A2>d2 | cdec d>cF>A | d2f2 A2>d2 | cdec d2 z2 :|
|: ^dede c2A2 | ^dede c2A2 | a2a2 f2df | aecA d2 z2 :|
